icons/podbean.svg

<svg width="32" height="32" viewBox="0 0 32 32" fill="none" xmlns="http://www.w3.org/2000/svg">
<g clip-path="url(#clip0_29_392)">
<path d="M3.36667 28.6333C0.913333 26.18 0 22.18 0 16C0 9.82 0.913333 5.82 3.36667 3.36667C5.82 0.913333 9.82 0 16 0C22.18 0 26.18 0.913333 28.6333 3.36667C31.0867 5.82 32 9.82 32 16C32 22.18 31.0867 26.18 28.6333 28.6333C26.18 31.0867 22.18 32 16 32C9.82 32 5.82 31.0867 3.36667 28.6333Z" fill="#252027"/>
<path d="M16 27.1667C18.7835 27.1667 21.04 24.9102 21.04 22.1267C21.04 19.3432 18.7835 17.0867 16 17.0867C13.2165 17.0867 10.96 19.3432 10.96 22.1267C10.96 24.9102 13.2165 27.1667 16 27.1667Z" fill="#8DC742"/>
<path d="M26.5333 14.0067C24.2267 10.3733 20.28 8.20001 15.98 8.20001C11.68 8.20001 7.73334 10.3667 5.42667 14.0067C4.96001 14.74 3.98667 14.96 3.24667 14.4933C2.51334 14.0267 2.29334 13.0533 2.76001 12.3133C5.64667 7.76668 10.5867 5.05334 15.98 5.05334C21.3733 5.05334 26.3133 7.77334 29.2 12.32C29.6667 13.0533 29.4467 14.0333 28.7133 14.5C27.92 15 26.9667 14.6933 26.5333 14.0133V14.0067Z" fill="#8DC742"/>
<path d="M22.94 17.8067C22.42 17.8067 21.9067 17.5467 21.6067 17.08C20.38 15.1667 18.2867 14.0267 16.0133 14.0267C13.74 14.0267 11.6467 15.1667 10.42 17.08C9.94666 17.8133 8.96666 18.0267 8.23333 17.5533C7.5 17.08 7.28666 16.1 7.76 15.3667C9.57333 12.54 12.66 10.86 16.02 10.86C19.38 10.86 22.4667 12.5467 24.28 15.3667C24.7533 16.1 24.54 17.08 23.8067 17.5533C23.54 17.7267 23.2467 17.8067 22.9533 17.8067H22.94Z" fill="#8DC742"/>
<path d="M16 24.7667C17.458 24.7667 18.64 23.5847 18.64 22.1267C18.64 20.6687 17.458 19.4867 16 19.4867C14.542 19.4867 13.36 20.6687 13.36 22.1267C13.36 23.5847 14.542 24.7667 16 24.7667Z" fill="white"/>
</g>
<defs>
<clipPath id="clip0_29_392">
<rect width="32" height="32" fill="white"/>
</clipPath>
</defs>
</svg>

<svg xmlns="http://www.w3.org/2000/svg" width="32" height="32" fill="none" viewBox="0 0 32 32">
  <g clip-path="url(#a)">
    <path fill="#252027" d="M3.367 28.633C.913 26.18 0 22.18 0 16 0 9.82.913 5.82 3.367 3.367 5.82.913 9.82 0 16 0c6.18 0 10.18.913 12.633 3.367C31.087 5.82 32 9.82 32 16c0 6.18-.913 10.18-3.367 12.633C26.18 31.087 22.18 32 16 32c-6.18 0-10.18-.913-12.633-3.367Z"/>
    <path fill="#8DC742" d="M16 27.167a5.04 5.04 0 1 0 0-10.08 5.04 5.04 0 0 0 0 10.08Zm10.533-13.16A12.447 12.447 0 0 0 15.98 8.2a12.43 12.43 0 0 0-10.553 5.807 1.582 1.582 0 0 1-2.18.486 1.582 1.582 0 0 1-.487-2.18 15.578 15.578 0 0 1 13.22-7.26c5.393 0 10.333 2.72 13.22 7.267a1.583 1.583 0 0 1-.487 2.18c-.793.5-1.746.193-2.18-.487v-.006Z"/>
    <path fill="#8DC742" d="M22.94 17.807c-.52 0-1.033-.26-1.333-.727a6.615 6.615 0 0 0-5.594-3.053 6.615 6.615 0 0 0-5.593 3.053 1.583 1.583 0 0 1-2.66-1.713 9.763 9.763 0 0 1 8.26-4.507 9.78 9.78 0 0 1 8.26 4.507 1.583 1.583 0 0 1-1.327 2.44h-.013Z"/>
    <path fill="#fff" d="M16 24.767a2.64 2.64 0 1 0 0-5.28 2.64 2.64 0 0 0 0 5.28Z"/>
  </g>
  <defs>
    <clipPath id="a">
      <path fill="#fff" d="M0 0h32v32H0z"/>
    </clipPath>
  </defs>
</svg>
